!!!!SEGMENT: pl-sa--230-a-vi-34--011_luna-georgius--litania-regina-angelorum.krn
!!!cenid: 17xx:505
!!!COM: Luna, Georgius
!!!COM-rismid: pe41010079
!!!CDT:
!!!CNT:
!!!OTL: Litania – Regina angelorum
!!!PDT:
!!!AGN: Sacred; Mass
!!!SMS-siglum: PL-SA
!!!SMS-shelfmark: 230/A VI 34
!!!SMS-shelfwork: 001-011 M
!!!SMS-variant: Violino 1mo: PL-SA 230/A VI 34:11
!!!SMS-altvar: Violino 1mo: PL-SA 230/A VI 34:32
!!!NIFC-rismid: 1001070084
!!!URL-scan: http://bc.bdsandomierz.pl/dlibra/publication/1606/edition/1574/content
!!!ONB-nifc: UWAGA: części Litanii: Simphonia, Kirie, Pater de caelis, Sancta Maria, Mater Christi, Mater amabilis, Virgo prudentissima, Speculum, Rosa mistica, Salus infirmorum, Regina angelorum, Agnus Dei
**kern	**dynam	**kern	**dynam	**kern	**dynam	**kern	**kern	**text	**kern	**kern
*part7	*part7	*part6	*part6	*part5	*part5	*part4	*part3	*part3	*part2	*part1
*staff7	*	*staff6	*	*staff5	*	*staff4	*staff3	*staff3	*staff2	*staff1
*I"Fundamenti	*	*I"Violino 2do.	*	*I"Violino 1mo.	*	*I"Tenore	*I"Canto	*	*I"Clarino 2do ex C	*I"Cornu ex C
*I'fund.	*	*I'vl 2	*	*I'vl 1	*	*I'T	*I'C	*	*I'clar 2	*I'clar 1
*clefF4	*	*clefG2	*	*clefG2	*	*clefC4	*clefC1	*	*clefG2	*clefG2
*k[]	*	*k[]	*	*k[]	*	*k[]	*k[]	*	*k[]	*k[]
*M3/8	*	*M3/8	*	*M3/8	*	*M3/8	*M3/8	*	*M3/8	*M3/8
=1	=1	=1	=1	=1	=1	=1	=1	=1	=1	=1
!LO:TX:t=P:problem:kasownik przed metrum	!	!	!	!	!	!	!	!	!	!LO:TX:a:t=P:problem:w źródle naprzemiennie gra clarino i cornu.
!LO:TX:t=P:problem:brak klucza w źródle	!	!LO:TX:a:t=P:problem:wszystkie caudy z prawej strony z wyjątkiem nut na dodanych górnych	!	!LO:TX:a:t=P:problem:wszystkie caudy z prawej strony z wyjątkiem nut na dodanych górnych	!	!	!	!	!LO:TX:a:t=P:problem:right&colon;global	!LO:TX:a:t=P:problem:wszystkie caudy z prawej strony z wyjątkiem nut na dodanych górnych
!LO:TX:a:t=P:problem:wszystkie caudy z prawej strony z wyjątkiem nut na dodanych górnych	!	!LO:TX:i:b:t=Regina	!	!LO:TX:i:b:t=Regina	!	!	!	!	!	!LO:TX:i:b:t=Regina
!LO:TX:i:b:t=Regina	!	!LO:TX:i:a:t=all(egr)o	!	!LO:TX:i:a:t=All(egr)o	!	!LO:TX:i:a:t=Regina\nTacet	!	!	!LO:TX:i:b:t=Regina	!LO:TX:i:a:t=All(egr)o
!	!	!LO:TX:t=P:problem:brak klucza w źródle	!	!	!	!	!LO:TX:t=P:problem:brak klucza w źródle	!	!	!
!	!	!	!LO:TX:t=P:problem:"allegro" znajduje się przed metrum na pięciolinii	!LO:TX:t=P:problem: "Allegro" znajduje się przed kluczem wiolinowym na pięciolinii	!	!LO:TX:t=P:problem:Regina Tacet na pięciolinii	!LO:N:vis=00	!	!	!
8C\L	.	4.cc	.	4.cc	.	4.ryy	1.r	.	4.cc	4.ee
8E\	.	.	.	.	.	.	.	.	.	.
!	!	!	!	!	!	!	!	!	!LO:TX:i:a:t=Ex C	!
8C\J	.	.	.	.	.	.	.	.	.	.
=2	=2	=2	=2	=2	=2	=2	=2	=2	=2	=2
8BBL	.	4.gg	.	4.gg	.	4.ryy	.	.	4.g	4.dd
8GG	.	.	.	.	.	.	.	.	.	.
!	!	!	!	!	!	!	!	!	!	!LO:TX:i:a:t=Ex C
8BBJ	.	.	.	.	.	.	.	.	.	.
=3	=3	=3	=3	=3	=3	=3	=3	=3	=3	=3
*	*	*Xtuplet	*	*Xtuplet	*	*	*	*	*	*
!	!	!LO:TUP:a:problem:klamra łukowa	!	!	!	!	!	!	!	!
8CL	.	24eeLL	.	24eeLL	.	4.ryy	.	.	4cc	4ee
.	.	24dd	.	24dd	.	.	.	.	.	.
.	.	24ccJJ	.	24ccJJ	.	.	.	.	.	.
8E	.	8cccL	.	8cccL	.	.	.	.	.	.
!	!	!	!	!	!	!	!	!	!LO:TX:a:t=P:problem:8\right&colon;global	!
8FJ	.	8aaJ	.	8aaJ	.	.	.	.	8ff	8aa
!LO:LB:g=original	!	!LO:LB:g=original	!	!	!	!	!	!	!	!
=4	=4	=4	=4	=4	=4	=4	=4	=4	=4	=4
8CL	.	24ggLL	.	24ggLL	.	4.ryy	.	.	4ee	4gg
.	.	24ff	.	24ff	.	.	.	.	.	.
.	.	24eeJJ	.	24eeJJ	.	.	.	.	.	.
8E	.	8cccL	.	8cccL	.	.	.	.	.	.
8FJ	.	8aaJ	.	8aaJ	.	.	.	.	8ff	8aa
=5	=5	=5	=5	=5	=5	=5	=5	=5	=5	=5
!	!	!	!	!	!	!	!LO:N:vis=00	!	!	!
8EL	.	16ggLL	.	16ggLL	.	4.ryy	1.r	.	4ee	4gg
.	.	16eeJJ	.	16eeJJ	.	.	.	.	.	.
8F	.	8ddL	.	8ddL	.	.	.	.	.	.
8FJ	.	8ccJ	.	8ccJ	.	.	.	.	8cc	8ee
=6	=6	=6	=6	=6	=6	=6	=6	=6	=6	=6
8GL	.	8bL	.	8bL	.	4.ryy	.	.	8gL	8ddL|
8CJ	.	8ccJ	.	8ccJ	.	.	.	.	8ccJ	8eeJ|
8r	.	8r	.	8r	.	.	.	.	8r	8r
=7	=7	=7	=7	=7	=7	=7	=7	=7	=7	=7
!	!	!	!	!	!	!	!	!	!LO:TX:t=P:problem:łuk nad "4"	!
!	!	!	!LO:DY:a	!	!	!	!	!	!LO:TX:a:t=4	!LO:N:vis=00
!	!	!	!	!	!	!	!	!	!LO:N:vis=00	!
8r	.	8r	p	(>24ee-XLL	.	4.ryy	.	.	1.r	1.r
.	.	.	.	24dd	.	.	.	.	.	.
.	.	.	.	24ccJJ)	.	.	.	.	.	.
!	!LO:DY:a:rj	!	!	!	!	!	!	!	!	!
8F#XL	p	8aL	.	4ee-	.	.	.	.	.	.
8F#J	.	8aJ	.	.	.	.	.	.	.	.
=8	=8	=8	=8	=8	=8	=8	=8	=8	=8	=8
8r	.	8r	.	24ee-XLL	.	4.ryy	.	.	.	.
.	.	.	.	24dd	.	.	.	.	.	.
.	.	.	.	24ccJJ	.	.	.	.	.	.
8F#XL	.	8aL	.	4ee-	.	.	.	.	.	.
8F#J	.	8aJ	.	.	.	.	.	.	.	.
=9	=9	=9	=9	=9	=9	=9	=9	=9	=9	=9
!	!	!	!	!	!	!	!LO:N:vis=00	!	!	!
8r	.	8r	.	8ee-XL	.	4.ryy	1.r	.	.	.
8F#XL	.	8aL	.	8dd	.	.	.	.	.	.
8F#J	.	8aJ	.	8ccJ	.	.	.	.	.	.
=10	=10	=10	=10	=10	=10	=10	=10	=10	=10	=10
!LO:TX:a:t=P:problem:mixed beam	!	!	!	!	!	!	!	!	!	!
8G\L	.	16bLL	.	16bLL	.	4.ryy	.	.	.	.
.	.	16aJ	.	16aJ	.	.	.	.	.	.
8BB/	.	8gJ	.	8gJ	.	.	.	.	.	.
8GG/J	.	8r	.	8r	.	.	.	.	.	.
=11	=11	=11	=11	=11	=11	=11	=11	=11	=11	=11
*	*	*	*	*tuplet	*	*	*	*	*	*
!LO:TX:a:t=P:problem:mixed beam	!	!	!	!LO:TUP:a:problem:klamra łukowa	!	!	!	!	!	!
8C\L	.	24een/LL	.	24eenLL	.	4.ryy	.	.	8ccL	8eeL
.	.	24dd/	.	24dd	.	.	.	.	.	.
.	.	24cc/JJ	.	24ccJJ	.	.	.	.	.	.
8G\	.	16ddLL	.	16ddLL	.	.	.	.	8g	8dd
.	.	16b	.	16b	.	.	.	.	.	.
8GG/J	.	16g	.	16g	.	.	.	.	8gJ	8ddJ
.	.	16ffJJ	.	16ffJJ	.	.	.	.	.	.
!	!	!	!	!LO:LB:g=original	!	!	!	!	!	!
=12	=12	=12	=12	=12	=12	=12	=12	=12	=12	=12
8C\L	.	16eeLL	.	16eeLL	.	4.ryy	.	.	4cc	4ee
.	.	16ggJJ	.	16ggJJ	.	.	.	.	.	.
8E\	.	4ccc	.	4ccc	.	.	.	.	.	.
8C\J	.	.	.	.	.	.	.	.	8r	8r
=13	=13	=13	=13	=13	=13	=13	=13	=13	=13	=13
!LO:TX:a:t=P:problem:mixed beam	!	!	!	!	!	!	!	!	!	!
!	!	!	!	!	!	!	!LO:N:vis=00	!	!	!
8F\L	.	16aaLL	.	16aaLL	.	4.ryy	1.r	.	8dd/L	8ffL
.	.	(>16ff	.	16ff	.	.	.	.	.	.
8G\	.	16ee	.	16ee	.	.	.	.	8cc/	8ee
.	.	16dd	.	16dd	.	.	.	.	.	.
8GG/J	.	16cc)	.	16cc	.	.	.	.	8g/J	8ddJ
.	.	16bJJ	.	16bJJ	.	.	.	.	.	.
=14	=14	=14	=14	=14	=14	=14	=14	=14	=14	=14
8C\L	.	16eeLL	.	16eeLL	.	4.ryy	.	.	4cc	4ee
.	.	16ggJJ	.	16ggJJ	.	.	.	.	.	.
8E\	.	4ccc	.	4ccc	.	.	.	.	.	.
8C\J	.	.	.	.	.	.	.	.	8r	8r
!	!	!	!	!	!	!	!	!	!LO:LB:g=original	!
=15	=15	=15	=15	=15	=15	=15	=15	=15	=15	=15
!LO:TX:a:t=P:problem:mixed beam	!	!	!	!	!	!	!	!	!	!
8F\L	.	16aaLL	.	16aaLL	.	4.ryy	.	.	8dd/L	8ffL
.	.	16ff	.	16ff	.	.	.	.	.	.
8G\	.	16ee	.	16ee	.	.	.	.	8cc/	8ee
.	.	16dd	.	16dd	.	.	.	.	.	.
8GG/J	.	16cc	.	16cc	.	.	.	.	8g/J	8ddJ
.	.	16bJJ	.	16bJJ	.	.	.	.	.	.
!LO:LB:g=original	!	!LO:LB:g=original	!	!	!	!	!	!	!	!
=16	=16	=16	=16	=16	=16	=16	=16	=16	=16	=16
!	!	!	!	!LO:TX:a:t=P:problem:mixed beam	!	!	!	!	!	!
8cL	.	8cc\L	.	8cc\L	.	4.ryy	.	.	8ccL	8cc\L
8G	.	8g\	.	8g/	.	.	.	.	8g	8g\
8GJ	.	8g\J	.	8g/J	.	.	.	.	8gJ	8g\J
=17	=17	=17	=17	=17	=17	=17	=17	=17	=17	=17
!	!	!	!	!LO:TX:a:t=P:problem:mixed beam	!	!	!	!	!	!
!	!	!	!	!	!	!	!LO:N:vis=0	!	!	!
8cL	.	8ccL	.	8cc\L	.	4.ryy	2.r	.	8ccL	8ccL
8E	.	8e	.	8e/	.	.	.	.	8e	8e
8EJ	.	8eJ	.	8e/J	.	.	.	.	8eJ	8eJ
!	!	!	!	!	!	!	!	!	!	!LO:LB:g=original
=18	=18	=18	=18	=18	=18	=18	=18	=18	=18	=18
16FLL	.	16fLL	.	16fLL	.	4.ryy	.	.	8r	8ccL
16AJJ	.	16aJJ	.	16aJJ	.	.	.	.	.	.
!LO:TX:a:t=P:problem:mixed beam	!	!	!	!	!	!	!	!	!	!
8G\L	.	8gL	.	8gL	.	.	.	.	8gL	8g
8GG/J	.	8GJ	.	8GJ	.	.	.	.	8gJ	8gJ
=19	=19	=19	=19	=19	=19	=19	=19	=19	=19	=19
4C	.	4c	.	4c;>	.	4.ryy	4.r	.	4c	4c
!	!	!	!	!LO:TX:a:t=P:problem:podwójna kreska	!	!	!	!	!	!
8r	.	8r	.	8r	.	.	.	.	8r	8r
=20	=20	=20	=20	=20||	=20||	=20	=20	=20	=20	=20
!	!LO:DY:a	!	!LO:DY:a	!	!	!	!LO:TX:a:t=P:problem:wszystkie caudy z prawej strony z wyjątkiem nut na dodanych górnych	!	!	!
!	!	!	!	!	!	!	!	!	!LO:N:vis=00	!LO:N:vis=00
8C\L	p	4.ee	p	4.cc	.	4.ryy	4.cc	Regi-	1.r	1.r
8E\	.	.	.	.	.	.	.	.	.	.
8C\J	.	.	.	.	.	.	.	.	.	.
=21	=21	=21	=21	=21	=21	=21	=21	=21	=21	=21
8BBL	.	4.dd	.	4.gg	.	4.ryy	4.gg	.	.	.
8GG	.	.	.	.	.	.	.	.	.	.
8BBJ	.	.	.	.	.	.	.	.	.	.
=22	=22	=22	=22	=22	=22	=22	=22	=22	=22	=22
*	*	*	*	*Xtuplet	*	*	*Xtuplet	*	*	*
8CL	.	8eeL	.	24eeLL	.	4.ryy	24eeLL	-na	.	.
.	.	.	.	24dd	.	.	24dd	.	.	.
.	.	.	.	24ccJJ	.	.	24ccJJ	.	.	.
8E	.	8gg	.	8cccL	.	.	8ggL	.	.	.
8FJ	.	8ccJ	.	8aaJ	.	.	8aaJ	.	.	.
=23	=23	=23	=23	=23	=23	=23	=23	=23	=23	=23
8CL	.	8eeL	.	24ggLL	.	4.ryy	24ggLL	an-	.	.
.	.	.	.	24ff	.	.	24ff	.	.	.
.	.	.	.	24eeJJ	.	.	24eeJJ	.	.	.
8E	.	8gg	.	8cccL	.	.	8ggL	-ge-	.	.
8FJ	.	8ccJ	.	8aaJ	.	.	8aaJ	.	.	.
!	!	!	!	!LO:LB:g=original	!	!	!	!	!	!
=24	=24	=24	=24	=24	=24	=24	=24	=24	=24	=24
8CL	.	8eeL	.	16ggLL	.	4.ryy	16ggLL	-lo-	4.r	4.r
.	.	.	.	16eeJJ	.	.	16eeJJ	.	.	.
8F	.	8a	.	8ddL	.	.	8ddL	.	.	.
8FJ	.	8aJ	.	8ccJ	.	.	8ccJ	.	.	.
!	!	!	!	!	!	!	!LO:LB:g=original	!	!	!
=25	=25	=25	=25	=25	=25	=25	=25	=25	=25	=25
8GL	.	8dL	.	8bL	.	4.ryy	8b	-rum	8r	8r
!	!	!	!	!	!	!	!	!	!LO:TX:a:t=P:problem:16right&colon;global	!
8CJ	.	8eJ	.	8ccJ	.	.	8cc	.	16ccLL	16eeLL
.	.	.	.	.	.	.	.	.	16ccJ	16eeJ
8r	.	8r	.	8r	.	.	8r	.	8ccJ	8eeJ
=26	=26	=26	=26	=26	=26	=26	=26	=26	=26	=26
!	!	!	!	!	!	!	!	!	!LO:N:vis=00	!LO:N:vis=00
8r	.	8r	.	24ee-XLL	.	4.ryy	24ee-XLL	Re-	1.r	1.r
.	.	.	.	24dd	.	.	24dd	.	.	.
.	.	.	.	24ccJJ	.	.	24ccJJ	.	.	.
8F#XL	.	8aL	.	4ee-	.	.	4ee-	.	.	.
8F#J	.	8aJ	.	.	.	.	.	.	.	.
=27	=27	=27	=27	=27	=27	=27	=27	=27	=27	=27
8r	.	8r	.	24ee-XLL	.	4.ryy	24ee-XLL	-gi-	.	.
.	.	.	.	24dd	.	.	24dd	.	.	.
.	.	.	.	24ccJJ	.	.	24ccJJ	.	.	.
8F#XL	.	8aL	.	4ee-	.	.	4ee-	-na	.	.
8F#J	.	8aJ	.	.	.	.	.	.	.	.
=28	=28	=28	=28	=28	=28	=28	=28	=28	=28	=28
!	!	!	!	!	!	!	!LO:SIC:s=8ee-	!	!	!
8r	.	8r	.	8ee-XL	.	4.ryy	8ee	pa-	.	.
!LO:SIC:s=8F#	!	!	!	!	!	!	!	!	!	!
8FL	.	8aL	.	8dd	.	.	8dd	-tri-	.	.
!LO:SIC:s=8F#	!	!	!	!	!	!	!	!	!	!
8FJ	.	8aJ	.	8ccJ	.	.	8cc	-ar-	.	.
!LO:LB:g=original	!	!	!	!	!	!	!	!	!	!
=29	=29	=29	=29	=29	=29	=29	=29	=29	=29	=29
!LO:TX:a:t=P:problem:mixed beam	!	!	!	!	!	!	!	!	!	!
8G\L	.	16gLL	.	24b\LL	.	4.ryy	16bLL	-cha-	.	.
.	.	.	.	24a\	.	.	.	.	.	.
.	.	16aJ	.	.	.	.	16aJJ	.	.	.
.	.	.	.	24g\JJ	.	.	.	.	.	.
!	!	!	!	!	!	!	!	!LO:SIC:s=-rum	!	!
8BB/	.	8bJ	.	8ddL	.	.	8g	-um	.	.
8GG/J	.	8b/	.	8ddJ	.	.	8dd	o-	.	.
!	!	!LO:LB:g=original	!	!	!	!	!	!	!	!
=30	=30	=30	=30	=30	=30	=30	=30	=30	=30	=30
!LO:TX:a:t=P:problem:mixed beam	!	!	!	!	!	!	!	!	!LO:N:vis=00	!LO:N:vis=00
8C\L	.	8gL	.	16eenLL	.	4.ryy	16eenLL	.	1.r	1.r
.	.	.	.	16ccJJ	.	.	16ccJJ	.	.	.
8G\	.	8b	.	8ddL	.	.	8dd	-ra	.	.
8GG/J	.	8ddJ	.	8ffJ	.	.	8ff	pro	.	.
=31	=31	=31	=31	=31	=31	=31	=31	=31	=31	=31
!LO:TX:a:t=P:problem:mixed beam	!	!	!	!	!	!	!	!	!	!
8C\L	.	8gL	.	16eeLL	.	4.ryy	16eeLL	no-	.	.
.	.	.	.	16ccJJ	.	.	16ccJJ	.	.	.
8G\	.	8b	.	8ddL	.	.	8dd	-bis	.	.
8GG/J	.	8bJ	.	8ddJ	.	.	8r	.	.	.
=32	=32	=32	=32	=32	=32	=32	=32	=32	=32	=32
4C	.	(>16ccLL	.	(>16eeLL	.	4.ryy	16eeLL	re-	.	.
.	.	16ddJJ)	.	16ff#XJJ)	.	.	16ff#XJJ	.	.	.
.	.	4ee	.	4gg	.	.	4gg	.	.	.
8r	.	.	.	.	.	.	.	.	.	.
=33	=33	=33	=33	=33	=33	=33	=33	=33	=33	=33
!	!	!	!	!	!	!	!LO:SIC:s=16ff#	!	!	!
4D/	.	(>16ddLL	.	(>16ff#XLL	.	4.ryy	16ffLL	-gi-	.	.
.	.	16ccJJ)	.	16eeJJ)	.	.	16eeJJ	.	.	.
.	.	4b	.	4dd	.	.	4dd	-na	.	.
8r	.	.	.	.	.	.	.	.	.	.
=34	=34	=34	=34	=34	=34	=34	=34	=34	=34	=34
!	!	!	!	!	!	!	!	!	!LO:N:vis=00	!LO:N:vis=00
4F#X	.	(<16aLL	.	(>16ccLL	.	4.ryy	16ccLL	pro-	1.r	1.r
.	.	16bJJ)	.	16ddJJ)	.	.	16ddJJ	.	.	.
.	.	4cc	.	4ee	.	.	4ee	-phe-	.	.
8r	.	.	.	.	.	.	.	.	.	.
!	!	!	!	!LO:LB:g=original	!	!	!LO:LB:g=original	!	!	!
=35	=35	=35	=35	=35	=35	=35	=35	=35	=35	=35
4G	.	(<16bLL	.	(>16ddLL	.	4.ryy	16ddLL	-ta-	.	.
.	.	16aJJ)	.	16ccJJ)	.	.	16ccJJ	-ru(m)	.	.
.	.	4g	.	4b	.	.	4b	.	.	.
8r	.	.	.	.	.	.	.	.	.	.
=36	=36	=36	=36	=36	=36	=36	=36	=36	=36	=36
4D	.	(<16f#XLL	.	(<16aLL	.	4.ryy	16aLL	Re-	.	.
.	.	16gJJ)	.	16bJJ)	.	.	16bJJ	.	.	.
.	.	4a	.	4cc	.	.	4cc	.	.	.
8r	.	.	.	.	.	.	.	.	.	.
=37	=37	=37	=37	=37	=37	=37	=37	=37	=37	=37
4GG	.	(<16gLL	.	(>16bLL	.	4.ryy	16bLL	-gi-	.	.
.	.	16aJJ)	.	16ccJJ)	.	.	16ccJJ	.	.	.
.	.	4b/	.	4dd	.	.	4dd	-na	.	.
8r	.	.	.	.	.	.	.	.	.	.
=38	=38	=38	=38	=38	=38	=38	=38	=38	=38	=38
!	!	!	!	!	!	!	!	!	!LO:N:vis=00	!LO:N:vis=00
8GGL	.	8bL	.	8ddL	.	4.ryy	16ggLL	apo-	1.r	1.r
.	.	.	.	.	.	.	16ddJJ	.	.	.
8C	.	8a	.	8cc	.	.	8cc	-sto-	.	.
8GGJ	.	8gJ	.	8bJ	.	.	8b	.	.	.
=39	=39	=39	=39	=39	=39	=39	=39	=39	=39	=39
8DL	.	8gL	.	8b\L	.	4.ryy	8b	-lo-	.	.
16DL	.	8f#XJ	.	8a\J	.	.	8a	-ru(m)	.	.
16DJ	.	.	.	.	.	.	.	.	.	.
!	!	!	!LO:DY:a	!	!	!	!	!	!	!
8DJ	.	8r	f	8r	.	.	8r	.	.	.
=40	=40	=40	=40	=40	=40	=40	=40	=40	=40	=40
!	!	!LO:TX:i:a:t=poco	!	!	!	!	!	!	!	!
4D	.	8dL	.	16aLL	.	4.ryy	16aLL	o-	.	.
.	.	.	.	16b	.	.	16b	.	.	.
.	.	8d	.	16cc	.	.	16cc	.	.	.
.	.	.	.	16b	.	.	16b	.	.	.
8r	.	8dJ	.	16cc	.	.	16cc	.	.	.
.	.	.	.	16bJJ	.	.	16bJJ	.	.	.
=41	=41	=41	=41	=41	=41	=41	=41	=41	=41	=41
!LO:N:vis=0	!	!	!	!	!	!	!	!	!	!
2.r	.	8dL	.	16ccLL	.	4.ryy	16ccLL	.	.	.
.	.	.	.	16ff#XJJ	.	.	16ff#XJJ	.	.	.
.	.	8d	.	4aa	.	.	4aa	-ra	.	.
.	.	8dJ	.	.	.	.	.	.	.	.
!	!	!LO:PB:g=original	!	!	!	!	!	!	!	!
=42	=42	=42	=42	=42	=42	=42	=42	=42	=42	=42
!	!	!	!	!	!	!	!	!	!LO:N:vis=00	!LO:N:vis=0
.	.	8dL	.	16aLL	.	4.ryy	16aLL	o-	2.r	2.r
.	.	.	.	16b	.	.	16b	.	.	.
.	.	8d	.	16cc	.	.	16cc	.	.	.
.	.	.	.	16b	.	.	16b	.	.	.
.	.	8dJ	.	16cc	.	.	16cc	.	.	.
.	.	.	.	16bJJ	.	.	16bJJ	.	.	.
=43	=43	=43	=43	=43	=43	=43	=43	=43	=43	=43
4.r	.	8dL	.	16ccLL	.	4.ryy	16ccLL	-ra	.	.
.	.	.	.	16ff#XJJ	.	.	16ff#XJJ	.	.	.
.	.	8d	.	4aa	.	.	4aa	.	.	.
.	.	8dJ	.	.	.	.	.	.	.	.
=44	=44	=44	=44	=44	=44	=44	=44	=44	=44	=44
!LO:TX:a:t=P:problem:mixed beam	!	!	!	!	!	!	!	!	!	!
8GG/L	.	8g	.	16gLL	.	4.ryy	16gLL	pro-	4.r	4.r
.	.	.	.	16aJJ	.	.	16aJJ	.	.	.
!	!	!LO:SIC:v=trudny do identyfikacji znak nad nutą. Przyjęto tryl	!	!LO:SIC:v=trudny do identyfikacji znak nad nutą. Przyjęto tryl	!	!	!LO:SIC:v=trudny do identyfikacji znak nad nutą. Przyjęto tryl	!	!	!
8D\	.	4f#Xt>	.	4aT	.	.	4aT>	-no-	.	.
8D\J	.	.	.	.	.	.	.	.	.	.
!	!	!	!	!	!	!	!LO:LB:g=original	!	!	!
=45	=45	=45	=45	=45	=45	=45	=45	=45	=45	=45
!	!LO:DY:a	!LO:TUP:b:problem:klamra łukowa	!	!	!	!	!	!	!	!
8GL	f	24bLL	.	24b\LL	.	4.ryy	4g/	-bis	8ddL	8ddL
.	.	24a	.	24a\	.	.	.	.	.	.
.	.	24gJJ	.	24g\JJ	.	.	.	.	.	.
8D	.	16aLL	.	16aLL	.	.	.	.	8dd	8dd
!	!	!LO:SIC:s=16f#	!	!	!	!	!	!	!	!
.	.	16f	.	16f#X	.	.	.	.	.	.
8DJ	.	16d	.	16d	.	.	8r	.	8ddJ	8ddJ
.	.	16ccJJ	.	16ccJJ	.	.	.	.	.	.
!LO:LB:g=original	!	!	!	!LO:LB:g=original	!	!	!	!	!	!
=46	=46	=46	=46	=46	=46	=46	=46	=46	=46	=46
!	!	!	!	!	!	!	!LO:N:vis=00	!	!	!
8GL	.	16bLL	.	16bLL	.	4.ryy	1.r	.	4dd	4dd
.	.	16ddJJ	.	16ddJJ	.	.	.	.	.	.
8B	.	4gg	.	4gg	.	.	.	.	.	.
8GJ	.	.	.	.	.	.	.	.	8r	8r
=47	=47	=47	=47	=47	=47	=47	=47	=47	=47	=47
8C\L	.	16eeLL	.	16eeLL	.	4.ryy	.	.	8ddL	8ddL
.	.	16cc	.	16cc	.	.	.	.	.	.
8D\	.	16b	.	16b	.	.	.	.	8dd	8dd
.	.	16aJJ	.	16aJJ	.	.	.	.	.	.
8D\J	.	16gLL	.	16gLL	.	.	.	.	8ddJ	8ddJ
.	.	16f#XJJ	.	16f#XJJ	.	.	.	.	.	.
=48	=48	=48	=48	=48	=48	=48	=48	=48	=48	=48
8GL	.	16bLL	.	16bLL	.	4.ryy	.	.	4g	4dd
.	.	16ddJJ	.	16ddJJ	.	.	.	.	.	.
8B	.	4gg	.	4gg	.	.	.	.	.	.
8GJ	.	.	.	.	.	.	.	.	8r	8r
=49	=49	=49	=49	=49	=49	=49	=49	=49	=49	=49
8C\L	.	16ee\LL	.	16eeLL	.	4.ryy	.	.	8ddL	8ddL
.	.	16cc\	.	16cc	.	.	.	.	.	.
8D\	.	16b\	.	16b	.	.	.	.	8dd	8dd
.	.	16a\	.	16aJJ	.	.	.	.	.	.
8D\J	.	16g\	.	16gLL	.	.	.	.	8ddJ	8ddJ
.	.	16f#X\JJ	.	16f#XJJ	.	.	.	.	.	.
=50	=50	=50	=50	=50	=50	=50	=50	=50	=50	=50
!	!	!	!	!	!	!	!LO:N:vis=00	!	!	!
8GL	.	8ggL	.	8ggL	.	4.ryy	1.r	.	4g	4dd
8D	.	8dd	.	8dd	.	.	.	.	.	.
8DJ	.	8ddJ	.	8ddJ	.	.	.	.	8r	8r
=51	=51	=51	=51	=51	=51	=51	=51	=51	=51	=51
!LO:TX:a:t=P:problem:mixed beam	!	!	!	!	!	!	!	!	!	!
8G\L	.	8ggL	.	8ggL	.	4.ryy	.	.	4g	4dd
8BB/	.	8b	.	8b	.	.	.	.	.	.
8BB/J	.	8bJ	.	8bJ	.	.	.	.	8r	8r
=52	=52	=52	=52	=52	=52	=52	=52	=52	=52	=52
16CLL	.	16ccLL	.	16ccLL	.	4.ryy	.	.	8r	8r
16EJJ	.	16eeJJ	.	16eeJJ	.	.	.	.	.	.
!LO:TX:a:t=P:problem:mixed beam	!	!LO:TX:a:t=P:problem:mixed beam	!	!LO:TX:a:t=P:problem:mixed beam	!	!	!	!	!	!
8D\L	.	8ddL	.	8dd\L	.	.	.	.	8ddL	8ddL
8DD/J	.	8dJ	.	8d/J	.	.	.	.	8ddJ	8ddJ
!	!	!	!	!	!	!	!	!	!LO:LB:g=original	!
=53	=53	=53	=53	=53	=53	=53	=53	=53	=53	=53
4GG	.	4g	.	4g	.	4.ryy	.	.	4g	4dd
8r	.	8r	.	8r	.	.	.	.	8r	8r
!	!	!	!	!	!	!	!	!	!	!LO:LB:g=original
=54	=54	=54	=54	=54	=54	=54	=54	=54	=54	=54
!	!LO:DY:a	!	!LO:DY:a	!	!LO:DY:a	!	!	!	!	!LO:TX:a:t=5
!	!	!	!	!	!	!	!	!	!LO:N:vis=00	!LO:N:vis=00
8GL	p	4.b\	p	4.g	p	4.ryy	4.g	Re-	1.r	1.r
8B	.	.	.	.	.	.	.	.	.	.
8GJ	.	.	.	.	.	.	.	.	.	.
=55	=55	=55	=55	=55	=55	=55	=55	=55	=55	=55
8F#XL	.	4.a\	.	4.dd	.	4.ryy	4.dd	-gi-	.	.
8D	.	.	.	.	.	.	.	.	.	.
8F#J	.	.	.	.	.	.	.	.	.	.
!	!	!LO:LB:g=original	!	!	!	!	!	!	!	!
=56	=56	=56	=56	=56	=56	=56	=56	=56	=56	=56
8GL	.	8bL	.	24b\LL	.	4.ryy	24bLL	.	.	.
.	.	.	.	24a\	.	.	24a	.	.	.
.	.	.	.	24g\JJ	.	.	24gJJ	.	.	.
8B	.	8dd	.	8ggL	.	.	8gg	.	.	.
8cJ	.	8gJ	.	8eeJ	.	.	8ee	-na	.	.
=57	=57	=57	=57	=57	=57	=57	=57	=57	=57	=57
8GL	.	8bL	.	24ddLL	.	4.ryy	24ddLL	Mar-	.	.
.	.	.	.	24cc	.	.	24cc	.	.	.
.	.	.	.	24bJJ	.	.	24bJJ	.	.	.
8B	.	8dd	.	8ggL	.	.	8ggL	.	.	.
8cJ	.	8gJ	.	8eeJ	.	.	8eeJ	.	.	.
!LO:LB:g=original	!	!	!	!LO:LB:g=original	!	!	!	!	!	!
=58	=58	=58	=58	=58	=58	=58	=58	=58	=58	=58
8GL	.	8bL	.	16ddLL	.	4.ryy	16ddLL	.	4.r	4.r
.	.	.	.	16bJJ	.	.	16bJJ	.	.	.
8C	.	8e	.	8aL	.	.	8aL	.	.	.
8CJ	.	8eJ	.	8gJ	.	.	8gJ	.	.	.
=59	=59	=59	=59	=59	=59	=59	=59	=59	=59	=59
!LO:TX:a:t=P:problem:mixed beam	!	!	!	!	!	!	!	!	!	!
!	!	!	!	!	!	!	!	!LO:SIC:s=-ty-	!	!
8D\L	.	8AL	.	8f#XL	.	4.ryy	16f#X	-ti-	8r	8r
.	.	.	.	.	.	.	16f#	-rum	.	.
8GG/J	.	8AJ	.	8gJ	.	.	8g/	.	16gLL	16ddLL
.	.	.	.	.	.	.	.	.	16gJ	16ddJ
8r	.	8r	.	8r	.	.	8r	.	8gJ	8ddJ
=60	=60	=60	=60	=60	=60	=60	=60	=60	=60	=60
!	!	!	!	!	!	!	!	!	!LO:N:vis=00	!LO:N:vis=00
4.G	.	4.gg	.	4.gg	.	4.ryy	4.gg	Re-	1.r	1.r
=61	=61	=61	=61	=61	=61	=61	=61	=61	=61	=61
4.D/	.	4.dd	.	4.dd	.	4.ryy	4.dd	-gi-	.	.
=62	=62	=62	=62	=62	=62	=62	=62	=62	=62	=62
8BBL|	.	8b\L|	.	8b\L|	.	4.ryy	8bL	-na	.	.
8AA|	.	8a\|	.	8a\|	.	.	8aJ	.	.	.
8GGJ|	.	8g\J|	.	8g\J|	.	.	8g	.	.	.
=63	=63	=63	=63	=63	=63	=63	=63	=63	=63	=63
8BBL|	.	8b\L|	.	8b\L|	.	4.ryy	8bL	Con-	.	.
8AA|	.	8a\|	.	8a\|	.	.	8aJ	.	.	.
!	!	!	!	!	!	!	!	!LO:SIC:s=-fes-	!	!
8GGJ|	.	8g\J|	.	8g\J|	.	.	8g	-fe-	.	.
=64	=64	=64	=64	=64	=64	=64	=64	=64	=64	=64
!LO:TX:a:t=P:problem:mixed beam	!	!LO:TX:a:t=P:problem:mixed beam	!	!LO:TX:a:t=P:problem:mixed beam	!	!	!	!	!	!
!	!	!	!	!	!	!	!	!	!LO:N:vis=00	!LO:N:vis=00
8D\L	.	8dd\L	.	8dd\L	.	4.ryy	8dd	-so-	1.r	1.r
8DD/J	.	8d/J	.	8dJ	.	.	8d	-rum	.	.
8r	.	8r	.	8r	.	.	8r	.	.	.
!	!	!	!	!	!	!	!LO:LB:g=original	!	!	!
=65	=65	=65	=65	=65	=65	=65	=65	=65	=65	=65
8DL	.	8a\L	.	16ccLL	.	4.ryy	16ccLL	o-	.	.
.	.	.	.	16ff#XJJ	.	.	16ff#XJJ	-ra	.	.
8F#X	.	8cc\	.	8aaL	.	.	8aa	.	.	.
8DJ	.	8a\J	.	8ccJ	.	.	8cc	pro	.	.
=66	=66	=66	=66	=66	=66	=66	=66	=66	=66	=66
!LO:TX:a:t=P:problem:mixed beam	!	!	!	!	!	!	!	!	!	!
8G\L	.	8bL	.	8ccL	.	4.ryy	8cc	no-	.	.
8GG/	.	8g	.	8b	.	.	8b	-bis	.	.
8B\J	.	8ddJ	.	8ggJ	.	.	8r	.	.	.
=67	=67	=67	=67	=67	=67	=67	=67	=67	=67	=67
8cL	.	8eeL	.	8ggL	.	4.ryy	16eeLL	Re-	.	.
.	.	.	.	.	.	.	16ddJJ	.	.	.
8c	.	8ee	.	8gg	.	.	8ccL	.	.	.
8cJ	.	8eeJ	.	8ggJ	.	.	8bJ	.	.	.
=68	=68	=68	=68	=68	=68	=68	=68	=68	=68	=68
!	!	!	!	!	!	!	!	!	!LO:N:vis=00	!LO:N:vis=00
8AL	.	8ccL	.	8ggL	.	4.ryy	16aLL	-gi-	1.r	1.r
.	.	.	.	.	.	.	16bJ	.	.	.
8A	.	8cc	.	8gg	.	.	8ccJ	.	.	.
8AJ	.	8ccJ	.	8ggJ	.	.	8ee	-na	.	.
=69	=69	=69	=69	=69	=69	=69	=69	=69	=69	=69
8BL	.	8ddL	.	8ggL	.	4.ryy	16ddLL	Vir-	.	.
.	.	.	.	.	.	.	16ccJJ	.	.	.
8B	.	8dd	.	8gg	.	.	8bL	.	.	.
8BJ	.	8ddJ	.	8ggJ	.	.	8aJ	.	.	.
=70	=70	=70	=70	=70	=70	=70	=70	=70	=70	=70
8GL	.	8bL	.	8ggL	.	4.ryy	16g	-gi-	.	.
.	.	.	.	.	.	.	16a	.	.	.
8G	.	8b	.	8gg	.	.	8b	-nu(m)	.	.
8GJ	.	8bJ	.	8ggJ	.	.	8dd	o-	.	.
=71	=71	=71	=71	=71	=71	=71	=71	=71	=71	=71
8AL	.	8ccL	.	8ff#XL	.	4.ryy	16ccLL	.	.	.
.	.	.	.	.	.	.	16bJJ	.	.	.
8A	.	8cc	.	8ff#	.	.	8aL	.	.	.
8AJ	.	8ccJ	.	8ff#J	.	.	8gJ	.	.	.
!LO:LB:g=original	!	!	!	!	!	!	!	!	!	!
=72	=72	=72	=72	=72	=72	=72	=72	=72	=72	=72
!	!	!	!	!LO:SIC:s=8ff#	!	!	!	!	!LO:N:vis=00	!LO:N:vis=00
8DL	.	8aL	.	8ffL	.	4.ryy	16f#XLL	.	1.r	1.r
.	.	.	.	.	.	.	16gJJ	.	.	.
!	!	!	!	!LO:SIC:s=8ff#	!	!	!	!	!	!
8D	.	8a	.	8ff	.	.	8a	-ra	.	.
!	!	!	!	!LO:SIC:s=8ff#	!	!	!	!	!	!
8DJ	.	8aJ	.	8ffJ	.	.	8cc	pro	.	.
!	!	!LO:LB:g=original	!	!LO:LB:g=original	!	!	!	!	!	!
=73	=73	=73	=73	=73	=73	=73	=73	=73	=73	=73
8GL	.	8bL	.	8ggL	.	4.ryy	8b	no-	.	.
8D	.	8a	.	8ff#X	.	.	8a	-bis	.	.
8DJ	.	8aJ	.	8ff#J	.	.	8r	.	.	.
!	!	!	!	!	!	!	!LO:PB:g=original	!	!	!
=74	=74	=74	=74	=74	=74	=74	=74	=74	=74	=74
8DL	.	16f#XLL	.	(>16aLL	.	4.ryy	8aL	Re-	.	.
.	.	16a	.	16cc	.	.	.	.	.	.
8D	.	16g	.	16b)	.	.	8b	.	.	.
.	.	16b	.	16ddJJ	.	.	.	.	.	.
8DJ	.	16a	.	(>16ccLL	.	.	8ccJ	.	.	.
.	.	16ccJJ	.	16aaJJ)	.	.	.	.	.	.
=75	=75	=75	=75	=75	=75	=75	=75	=75	=75	=75
!LO:TX:a:t=P:problem:mixed beam	!	!	!	!	!	!	!	!	!	!
8D\L	.	8aL	.	8ccL	.	4.ryy	8cc	-gi-	.	.
8G\	.	8g	.	8b	.	.	4b	-na	.	.
8GG/J	.	8gJ	.	8bJ	.	.	.	.	.	.
=76	=76	=76	=76	=76	=76	=76	=76	=76	=76	=76
!	!	!	!	!	!	!	!	!	!LO:N:vis=00	!LO:N:vis=00
8GGL	.	8bL	.	24g/LL	.	4.ryy	16ddLL	San-	1.r	1.r
.	.	.	.	24b/	.	.	.	.	.	.
.	.	.	.	.	.	.	16eeJJ	.	.	.
.	.	.	.	24dd/JJ	.	.	.	.	.	.
8BB	.	8dd	.	8ffnL	.	.	8ff	-cto-	.	.
8DJ	.	8ccJ	.	8eeJ	.	.	8ee	-ru(m)	.	.
=77	=77	=77	=77	=77	=77	=77	=77	=77	=77	=77
!LO:TX:a:t=P:problem:mixed beam	!	!	!	!	!	!	!	!	!	!
8G\L	.	8ccL	.	8eeL	.	4.ryy	16ee	om-	.	.
.	.	.	.	.	.	.	16dd	-ni-	.	.
8GG/	.	8b	.	8dd	.	.	8dd	-um	.	.
8GG/J	.	8bJ	.	8ddJ	.	.	8r	.	.	.
=78	=78	=78	=78	=78	=78	=78	=78	=78	=78	=78
*	*	*	*	*tuplet	*	*	*	*	*	*
!LO:TX:a:t=P:problem:mixed beam	!	!	!	!LO:TUP:a:problem:klamra łukowa	!	!	!	!	!	!
8C\L	.	8ccL	.	24eeLL	.	4.ryy	16eeLL	o-	.	.
.	.	.	.	24dd	.	.	.	.	.	.
.	.	.	.	.	.	.	16ccJJ	.	.	.
.	.	.	.	24ccJJ	.	.	.	.	.	.
8G\	.	8b	.	16ddLL	.	.	16ddLL	-ra	.	.
.	.	.	.	16b	.	.	16bJJ	pro	.	.
8GG/J	.	8ddJ	.	16g	.	.	16gLL	.	.	.
.	.	.	.	16ffJJ	.	.	16ffJJ	.	.	.
=79	=79	=79	=79	=79	=79	=79	=79	=79	=79	=79
8C\L	.	8cc	.	16eeLL	.	4.ryy	8ee	no-	.	.
.	.	.	.	16ggJJ	.	.	.	.	.	.
8E\	.	4ee	.	4ccc	.	.	4gg	-bis	.	.
8C\J	.	.	.	.	.	.	.	.	.	.
=80	=80	=80	=80	=80	=80	=80	=80	=80	=80	=80
!LO:TX:a:t=P:problem:mixed beam	!	!LO:TX:a:t=P:problem:mixed beam	!	!	!	!	!	!	!	!
!	!	!	!	!	!	!	!	!	!LO:N:vis=00	!LO:N:vis=00
8F\L	.	8cc\L	.	16aaLL	.	4.ryy	16aaLL	pro	1.r	1.r
.	.	.	.	16ff	.	.	16ffJJ	.	.	.
8G\	.	8d/	.	16ee	.	.	16eeLL	no-	.	.
.	.	.	.	16dd	.	.	16ddJJ	.	.	.
8GG/J	.	8d/J	.	16cc	.	.	16ccLL	-bis	.	.
.	.	.	.	16bJJ	.	.	16bJJ	.	.	.
=81	=81	=81	=81	=81	=81	=81	=81	=81	=81	=81
8C\L	.	8cc	.	16eeLL	.	4.ryy	8ee	o-	.	.
.	.	.	.	16ggJJ	.	.	.	.	.	.
8E\	.	4ee	.	4ccc	.	.	4gg	-ra	.	.
8C\J	.	.	.	.	.	.	.	.	.	.
=82	=82	=82	=82	=82	=82	=82	=82	=82	=82	=82
*	*	*	*	*Xtuplet	*	*	*	*	*	*
!LO:TX:a:t=P:problem:mixed beam	!	!LO:TX:a:t=P:problem:mixed beam	!	!	!	!	!	!	!	!
8F\L	.	8cc\L	.	24aaLL	.	4.ryy	16aaLL	pro	.	.
.	.	.	.	24gg	.	.	.	.	.	.
.	.	.	.	.	.	.	16ffJJ	.	.	.
.	.	.	.	24ffJJ	.	.	.	.	.	.
8G\	.	8d/	.	16eeLL	.	.	16eeLL	no-	.	.
.	.	.	.	16dd	.	.	16ddJJ	.	.	.
8GG/J	.	8d/J	.	16cc	.	.	16ccLL	-bis	.	.
.	.	.	.	16bJJ	.	.	16bJJ	.	.	.
!	!	!	!	!LO:LB:g=original	!	!	!	!	!	!
=83	=83	=83	=83	=83	=83	=83	=83	=83	=83	=83
8cL	.	8cc\L	.	8cc\L	.	4.ryy	8ccL	o-	.	.
8G	.	8g\	.	8g\	.	.	8g	-ra	.	.
8GJ	.	8g\J	.	8g\J	.	.	8gJ	.	.	.
!	!	!	!	!	!	!	!LO:LB:g=original	!	!	!
=84	=84	=84	=84	=84	=84	=84	=84	=84	=84	=84
!	!	!LO:TX:a:t=P:problem:mixed beam	!	!LO:TX:a:t=P:problem:mixed beam	!	!	!LO:TX:a:t=P:problem:mixed beam	!	!	!
*	*	*	*	*	*	*	*	*ij	*	*
!	!	!	!	!	!	!	!	!	!LO:N:vis=0	!LO:N:vis=0
8cL	.	8cc\L	.	8cc\L	.	4.ryy	8ccL	o-	2.r	2.r
8E	.	8e/	.	8e/	.	.	8e/J	.	.	.
8EJ	.	8e/J	.	8e/J	.	.	8e	-ra	.	.
*	*	*	*	*	*	*	*	*Xij	*	*
!LO:LB:g=original	!	!	!	!	!	!	!	!	!	!
=85	=85	=85	=85	=85	=85	=85	=85	=85	=85	=85
16FLL	.	16fLL	.	16f/LL	.	4.ryy	16fLL	pro	.	.
16AJJ	.	16aJJ	.	16aJJ	.	.	16aJJ	.	.	.
!LO:TX:a:t=P:problem:mixed beam	!	!	!	!	!	!	!LO:SIC:v=trudny do identyfikacji znak nad nutą. Przyjęto tryl	!	!	!
8G\L	.	8gL	.	8g/L	.	.	4gT>	no-	.	.
8GG/J	.	8GJ	.	8GJ	.	.	.	.	.	.
=86	=86	=86	=86	=86	=86	=86	=86	=86	=86	=86
!	!LO:DY:a	!	!	!	!	!	!	!	!	!
8C\L	f	4.cc	.	4.cc	.	4.ryy	4cc	-bis	4.cc	4.ee
8E\	.	.	.	.	.	.	.	.	.	.
8C\J	.	.	.	.	.	.	8r	.	.	.
=87	=87	=87	=87	=87	=87	=87	=87	=87	=87	=87
!	!	!	!	!LO:TX:i:a:t=Da Capo ad Signum.	!	!	!LO:N:vis=00	!	!	!
!	!	!	!	!LO:TX:t=P:problem:Da Capo ad Signum na pięciolinii	!	!	!	!	!	!
8BBL	.	4.gg	.	4.ryy	.	4.ryy	1.r	.	4.g	4.dd
8GG	.	.	.	.	.	.	.	.	.	.
8BBJ	.	.	.	.	.	.	.	.	.	.
!	!	!LO:LB:g=original	!	!	!	!	!	!	!	!
=88	=88	=88	=88	=88	=88	=88	=88	=88	=88	=88
8CL	.	24eeLL	.	4.ryy	.	4.ryy	.	.	4cc	4ee
.	.	24dd	.	.	.	.	.	.	.	.
.	.	24ccJJ	.	.	.	.	.	.	.	.
8E	.	8cccL	.	.	.	.	.	.	.	.
8FJ	.	8aaJ	.	.	.	.	.	.	8ff	8aa
=89	=89	=89	=89	=89	=89	=89	=89	=89	=89	=89
8CL	.	24ggLL	.	4.ryy	.	4.ryy	.	.	4ee	4gg
.	.	24ff	.	.	.	.	.	.	.	.
.	.	24eeJJ	.	.	.	.	.	.	.	.
8E	.	8cccL	.	.	.	.	.	.	.	.
8FJ	.	8aaJ	.	.	.	.	.	.	8ff	8aa
=90	=90	=90	=90	=90	=90	=90	=90	=90	=90	=90
8EL	.	16ggLL	.	4.ryy	.	4.ryy	.	.	4ee	4gg
.	.	16eeJJ	.	.	.	.	.	.	.	.
8F	.	8ddL	.	.	.	.	.	.	.	.
8FJ	.	8ccJ	.	.	.	.	.	.	8cc	8ee
=91	=91	=91	=91	=91	=91	=91	=91	=91	=91	=91
!	!	!	!	!	!	!	!LO:N:vis=00	!	!	!
8GL	.	8bL	.	4.ryy	.	4.ryy	1.r	.	8gL	8ddL
8CJ	.	8ccJ	.	.	.	.	.	.	8ccJ	8eeJ
8r	.	8r	.	.	.	.	.	.	8r	8r
=92	=92	=92	=92	=92	=92	=92	=92	=92	=92	=92
!	!	!	!	!	!	!	!	!	!LO:TX:t=P:problem:łuk nad "4"	!LO:TX:t=P:problem:łuk nad "4"
!	!	!	!LO:DY:a	!	!	!	!	!	!LO:TX:a:t=4	!LO:TX:a:t=4
!	!	!	!	!	!	!	!	!	!LO:N:vis=00	!LO:N:vis=00
8r	.	8r	p	4.ryy	.	4.ryy	.	.	1.r	1.r
!	!LO:DY:a:rj	!	!	!	!	!	!	!	!	!
8F#XL	p	8aL	.	.	.	.	.	.	.	.
8F#J	.	8aJ	.	.	.	.	.	.	.	.
=93	=93	=93	=93	=93	=93	=93	=93	=93	=93	=93
8r	.	8r	.	4.ryy	.	4.ryy	.	.	.	.
8F#XL	.	8aL	.	.	.	.	.	.	.	.
8F#J	.	8aJ	.	.	.	.	.	.	.	.
=94	=94	=94	=94	=94	=94	=94	=94	=94	=94	=94
8r	.	8r	.	4.ryy	.	4.ryy	.	.	.	.
8F#XL	.	8aL	.	.	.	.	.	.	.	.
8F#J	.	8aJ	.	.	.	.	.	.	.	.
=95	=95	=95	=95	=95	=95	=95	=95	=95	=95	=95
!LO:TX:a:t=P:problem:mixed beam	!	!	!	!	!	!	!	!	!	!
!	!	!	!	!	!	!	!LO:N:vis=00	!	!	!
8G\L	.	16b\LL	.	4.ryy	.	4.ryy	1.r	.	.	.
.	.	16a\J	.	.	.	.	.	.	.	.
8BB/	.	8g\J	.	.	.	.	.	.	.	.
8GG/J	.	8r	.	.	.	.	.	.	.	.
=96	=96	=96	=96	=96	=96	=96	=96	=96	=96	=96
!LO:TX:a:t=P:problem:mixed beam	!LO:DY:a	!	!LO:DY:b	!	!	!	!	!	!	!
8C\L	f	24eeLL	f	4.ryy	.	4.ryy	.	.	8ccL	8eeL
.	.	24dd	.	.	.	.	.	.	.	.
.	.	24ccJJ	.	.	.	.	.	.	.	.
8G\	.	16ddLL	.	.	.	.	.	.	8g	8dd
.	.	16b	.	.	.	.	.	.	.	.
8GG/J	.	16g	.	.	.	.	.	.	8gJ	8ddJ
.	.	16ffJJ	.	.	.	.	.	.	.	.
!LO:LB:g=original	!	!	!	!	!	!	!	!	!	!
=97	=97	=97	=97	=97	=97	=97	=97	=97	=97	=97
8C\L	.	16eeLL	.	4.ryy	.	4.ryy	.	.	4cc	4ee
.	.	16ggJJ	.	.	.	.	.	.	.	.
8E\	.	4ccc	.	.	.	.	.	.	.	.
8C\J	.	.	.	.	.	.	.	.	8r	8r
=98	=98	=98	=98	=98	=98	=98	=98	=98	=98	=98
!LO:TX:a:t=P:problem:mixed beam	!	!	!	!	!	!	!	!	!	!
8F\L	.	16aaLL	.	4.ryy	.	4.ryy	.	.	8ddL	8ffL
.	.	(>16ff	.	.	.	.	.	.	.	.
8G\	.	16ee	.	.	.	.	.	.	8cc	8ee
.	.	16dd)	.	.	.	.	.	.	.	.
8GG/J	.	16cc	.	.	.	.	.	.	8gJ	8ddJ
.	.	16bJJ	.	.	.	.	.	.	.	.
=99	=99	=99	=99	=99	=99	=99	=99	=99	=99	=99
!	!	!	!	!	!	!	!LO:N:vis=00	!	!	!
8C\L	.	16eeLL	.	4.ryy	.	4.ryy	1.r	.	4cc	4ee
.	.	16ggJJ	.	.	.	.	.	.	.	.
8E\	.	4ccc	.	.	.	.	.	.	.	.
8C\J	.	.	.	.	.	.	.	.	8r	8r
!	!	!LO:LB:g=original	!	!	!	!	!	!	!LO:LB:g=original	!LO:LB:g=original
=100	=100	=100	=100	=100	=100	=100	=100	=100	=100	=100
!LO:TX:a:t=P:problem:mixed beam	!	!	!	!	!	!	!	!	!	!
8F\L	.	16aaLL	.	4.ryy	.	4.ryy	.	.	8ddL	8ffL
.	.	(>16ff	.	.	.	.	.	.	.	.
8G\	.	16ee	.	.	.	.	.	.	8cc	8ee
.	.	16dd)	.	.	.	.	.	.	.	.
8GG/J	.	16cc	.	.	.	.	.	.	8gJ	8ddJ
.	.	16bJJ	.	.	.	.	.	.	.	.
=101	=101	=101	=101	=101	=101	=101	=101	=101	=101	=101
!	!	!LO:TX:a:t=P:problem:mixed beam	!	!	!	!	!	!	!	!
8cL	.	8cc\L	.	4.ryy	.	4.ryy	.	.	8cc\L	8ccL
8G	.	8g/	.	.	.	.	.	.	8g\	8g
8GJ	.	8g/J	.	.	.	.	.	.	8g\J	8gJ
=102	=102	=102	=102	=102	=102	=102	=102	=102	=102	=102
!	!	!LO:TX:a:t=P:problem:mixed beam	!	!	!	!	!	!	!LO:TX:a:t=P:problem:mixed beam	!LO:TX:a:t=P:problem:mixed beam
8cL	.	8cc\L	.	4.ryy	.	4.ryy	.	.	8cc\L	8cc\L
8E	.	8e/	.	.	.	.	.	.	8e/	8e/
8EJ	.	8e/J	.	.	.	.	.	.	8e/J	8e/J
=103	=103	=103	=103	=103	=103	=103	=103	=103	=103	=103
!	!	!	!	!	!	!	!LO:N:vis=0	!	!	!
16FLL	.	16fLL	.	4.ryy	.	4.ryy	2.r	.	8r	8r
16AJJ	.	16aJJ	.	.	.	.	.	.	.	.
!LO:TX:a:t=P:problem:mixed beam	!	!	!	!	!	!	!	!	!	!
8G\L	.	8gL	.	.	.	.	.	.	8gL	8gL
8GG/J	.	8GJ	.	.	.	.	.	.	8gJ	8gJ
=104	=104	=104	=104	=104	=104	=104	=104	=104	=104	=104
4C	.	4c	.	4.ryy	.	4.ryy	.	.	4c	4c
8r	.	8r	.	.	.	.	.	.	8r	8r
==	==	==	==	==	==	==	==	==	==	==
*-	*-	*-	*-	*-	*-	*-	*-	*-	*-	*-
!!!system-decoration: [(s1,s2)][(s3,s4)][(s5,s6)]s7
!!!RDF**kern: > = above
!!!RDF**kern: < = below
!!!RDF**dynam: p = "pia:"
!!!RDF**dynam: f = "for"
!!!EED: Mateusz Mrugas
!!!EST: 2020-10-26
!!!ENC: Andrzej Borzym
!!!END: 2020-05-29
!!!RDF**kern: | = vertical stroke
